static/img/pictograms/picto-pack/picto-shop-warmgrey.svg

<svg xmlns="http://www.w3.org/2000/svg" width="400" height="400" viewBox="0 0 400 400"><g><path d="M199.995 0c93.127 0 171.592 63.977 193.75 150.29h-52.253C320.935 91.946 265.284 50 199.992 50S79.054 91.945 58.497 150.292H6.25C28.41 63.977 106.87 0 199.996 0M400 199.99C400 310.278 310.277 400 199.995 400 89.715 400 0 310.277 0 199.99c0-13.807 11.194-25.004 25.002-25.004H375c13.806 0 25 11.197 25 25.005zM100.147 287.26h-22.07l.166.205-.194-.22c6.448 8.99 13.863 17.238 22.097 24.6l-.152-.166.152.152v-24.572zm0-62.265l-48.066-.004c2.206 13.062 6.1 25.565 11.46 37.26l.006.01h36.6v-37.267zm87.43 62.424l-62.432.004.004 42.68.204.078-.212-.064c18.666 10.792 39.847 17.678 62.435 19.537l-.152-.048.152.04v-62.225zm.003-62.262l-62.432-.004-.004 37.265h62.435v-37.26zm24.998 37.268h62.435V225.16h-62.435v37.263zm62.443 67.592l-.228.07.226-.077-.004-42.584H212.58l.003 62.206.152-.035-.152.046c22.59-1.89 43.78-8.805 62.438-19.625zm46.917-42.59l-.134.15.134-.15-21.922-.005v24.423l.24-.254-.23.257c8.15-7.31 15.51-15.5 21.912-24.423zm25.978-62.436h-47.9v.003l-.005 37.264h36.44l.003.004c5.36-11.698 9.258-24.2 11.462-37.27z" fill="#888"/></g></svg>

<?xml version="1.0" encoding="iso-8859-1"?>
<!-- Generator: Adobe Illustrator 17.0.2, SVG Export Plug-In . SVG Version: 6.00 Build 0)  -->
<!DOCTYPE svg PUBLIC "-//W3C//DTD SVG 1.1//EN" "http://www.w3.org/Graphics/SVG/1.1/DTD/svg11.dtd">
<svg version="1.1" xmlns="http://www.w3.org/2000/svg" xmlns:xlink="http://www.w3.org/1999/xlink" x="0px" y="0px" width="400px"
	 height="400px" viewBox="0 0 400 400" style="enable-background:new 0 0 400 400;" xml:space="preserve">
<g id="BK" style="display:none;">
	<rect x="-3100" y="-3080" style="display:inline;fill:#FFFFFF;" width="5100" height="4060"/>
</g>
<g id="Comp">
	<g id="_x31_3">
		<path style="fill:#888888;" d="M199.995,0c93.127,0,171.592,63.977,193.751,150.291h-52.254C320.935,91.945,265.284,50,199.991,50
			S79.055,91.945,58.498,150.292H6.251C28.409,63.977,106.868,0,199.995,0 M400,199.991C400,310.277,310.277,400,199.995,400
			C89.716,400,0,310.277,0,199.991c0-13.808,11.194-25.005,25.002-25.005h349.997C388.806,174.986,400,186.183,400,199.991z
			 M100.147,287.258h-22.07l0.166,0.205l-0.194-0.219c6.449,8.989,13.864,17.237,22.098,24.599l-0.152-0.166l0.152,0.152V287.258z
			 M100.147,224.993l-48.066-0.004c2.205,13.063,6.1,25.566,11.458,37.261l0.007,0.011h36.601V224.993z M187.577,287.417
			l-62.432,0.004l0.004,42.679l0.205,0.078l-0.212-0.064c18.666,10.792,39.847,17.678,62.435,19.537l-0.152-0.049l0.152,0.039
			V287.417z M187.58,225.155l-62.432-0.004l-0.004,37.264h62.435V225.155z M212.578,262.423h62.435v-37.264h-62.435V262.423z
			 M275.021,330.015l-0.229,0.071l0.226-0.078l-0.004-42.584h-62.435l0.004,62.206l0.152-0.035l-0.152,0.046
			C235.174,347.75,256.362,340.835,275.021,330.015z M321.937,287.424l-0.134,0.152L321.937,287.424l-21.922-0.004v24.423
			l0.24-0.254l-0.229,0.258C308.175,304.538,315.534,296.346,321.937,287.424z M347.915,224.989h-47.901v0.004l-0.004,37.264h36.439
			l0.004,0.004C341.812,250.562,345.711,238.06,347.915,224.989z"/>
	</g>
</g>
</svg>
